Simply-Green-Circles/scalable/apps/openbox.svg

<?xml version="1.0" encoding="UTF-8" standalone="no"?>
<svg
   xmlns:dc="http://purl.org/dc/elements/1.1/"
   xmlns:cc="http://creativecommons.org/ns#"
   xmlns:rdf="http://www.w3.org/1999/02/22-rdf-syntax-ns#"
   xmlns:svg="http://www.w3.org/2000/svg"
   xmlns="http://www.w3.org/2000/svg"
   xmlns:sodipodi="http://sodipodi.sourceforge.net/DTD/sodipodi-0.dtd"
   xmlns:inkscape="http://www.inkscape.org/namespaces/inkscape"
   width="48"
   height="48"
   viewBox="0 0 12.7 12.7"
   version="1.1"
   id="svg4"
   sodipodi:docname="openbox.svg"
   inkscape:version="0.92.4 (5da689c313, 2019-01-14)">
  <metadata
     id="metadata10">
    <rdf:RDF>
      <cc:Work
         rdf:about="">
        <dc:format>image/svg+xml</dc:format>
        <dc:type
           rdf:resource="http://purl.org/dc/dcmitype/StillImage" />
        <dc:title></dc:title>
      </cc:Work>
    </rdf:RDF>
  </metadata>
  <defs
     id="defs8" />
  <sodipodi:namedview
     pagecolor="#ffffff"
     bordercolor="#666666"
     borderopacity="1"
     objecttolerance="10"
     gridtolerance="10"
     guidetolerance="10"
     inkscape:pageopacity="0"
     inkscape:pageshadow="2"
     inkscape:window-width="1087"
     inkscape:window-height="480"
     id="namedview6"
     showgrid="false"
     inkscape:zoom="4.9166667"
     inkscape:cx="2.1355932"
     inkscape:cy="24"
     inkscape:window-x="0"
     inkscape:window-y="25"
     inkscape:window-maximized="0"
     inkscape:current-layer="svg4" />
  <path
     d="m 6.344,0.073 a 6.29,6.29 0 0 0 -6.29,6.29 6.29,6.29 0 0 0 6.29,6.288 6.29,6.29 0 0 0 6.29,-6.289 6.29,6.29 0 0 0 -6.29,-6.29 z M 6.326,1.009 A 5.407,5.407 0 0 1 11.733,6.416 5.407,5.407 0 0 1 6.326,11.823 5.407,5.407 0 0 1 0.92,6.416 5.407,5.407 0 0 1 6.326,1.01 Z M 2.877,2.877 A 0.495,0.495 0 0 0 2.381,3.373 v 5.954 c 0,0.274 0.222,0.496 0.496,0.496 H 9.823 A 0.495,0.495 0 0 0 10.319,9.327 V 3.373 A 0.495,0.495 0 0 0 9.823,2.877 Z m 0,1.613 h 6.946 c 0.068,0 0.124,0.055 0.124,0.124 V 9.327 A 0.124,0.124 0 0 1 9.823,9.451 H 2.877 A 0.124,0.124 0 0 1 2.753,9.327 V 4.614 C 2.753,4.545 2.809,4.49 2.877,4.49 Z M 4.61,4.787 A 0.401,0.401 0 0 0 4.344,4.908 L 4.262,4.99 A 0.415,0.415 0 0 0 4.26,5.58 l 1.59,1.592 a 0.416,0.416 0 0 0 0.42,0.102 l 1.39,1.39 0.041,0.151 A 0.105,0.105 0 0 0 7.742,8.873 L 8.198,9.189 A 0.105,0.105 0 0 0 8.333,9.178 L 8.531,8.98 A 0.105,0.105 0 0 0 8.542,8.844 L 8.233,8.389 A 0.105,0.105 0 0 0 8.174,8.349 L 8.017,8.303 6.63,6.915 A 0.413,0.413 0 0 0 6.527,6.503 L 4.936,4.91 A 0.418,0.418 0 0 0 4.68,4.79 V 4.789 A 0.407,0.407 0 0 0 4.61,4.787 Z M 7.528,4.82 A 0.05,0.05 0 0 0 7.51,4.823 C 7.259,4.912 7.023,5.092 6.911,5.294 a 0.688,0.688 0 0 0 -0.063,0.51 1.348,1.348 0 0 1 -0.315,0.47 l 0.18,0.2 a 0.64,0.64 0 0 1 0.092,0.42 C 7.007,6.692 7.372,6.438 7.5,6.394 7.816,6.449 8.137,6.316 8.29,6.039 8.403,5.837 8.43,5.541 8.369,5.285 A 0.052,0.052 0 0 0 8.309,5.245 0.052,0.052 0 0 0 8.269,5.27 L 7.96,5.827 C 7.933,5.877 7.87,5.899 7.79,5.897 A 0.627,0.627 0 0 1 7.52,5.813 0.623,0.623 0 0 1 7.303,5.632 C 7.258,5.567 7.243,5.502 7.27,5.452 L 7.576,4.902 A 0.056,0.056 0 0 0 7.572,4.839 0.053,0.053 0 0 0 7.528,4.82 Z M 5.594,7.155 4.287,8.39 c -0.14,0.14 -0.12,0.38 0.04,0.54 0.161,0.16 0.402,0.177 0.541,0.036 L 6.27,7.457 C 6.014,7.539 5.79,7.421 5.594,7.155 Z M 4.615,8.434 A 0.203,0.203 0 0 1 4.761,8.783 0.20435508,0.20435508 0 1 1 4.471,8.495 C 4.511,8.455 4.563,8.434 4.615,8.434 Z"
     id="path2"
     inkscape:connector-curvature="0"
     style="fill:#2ca02c" />
</svg>

<svg xmlns="http://www.w3.org/2000/svg" width="48" height="48" viewBox="0 0 12.7 12.7"><path fill="#2ca02c" d="M6.34.07a6.29 6.29 0 0 0-6.29 6.3 6.29 6.29 0 0 0 6.3 6.28 6.29 6.29 0 0 0 6.28-6.29A6.29 6.29 0 0 0 6.34.07zm-.01.94a5.4 5.4 0 0 1 5.4 5.4 5.4 5.4 0 0 1-5.4 5.41 5.4 5.4 0 0 1-5.41-5.4A5.4 5.4 0 0 1 6.32 1zM2.88 2.88a.5.5 0 0 0-.5.5v5.95c0 .27.22.5.5.5h6.94a.5.5 0 0 0 .5-.5V3.37a.5.5 0 0 0-.5-.5H2.88zm0 1.61h6.94c.07 0 .13.06.13.12v4.72a.12.12 0 0 1-.13.12H2.88a.12.12 0 0 1-.13-.12V4.6c0-.07.06-.12.13-.12zm1.73.3a.4.4 0 0 0-.27.12l-.08.08a.41.41 0 0 0 0 .59l1.59 1.6a.42.42 0 0 0 .42.1l1.39 1.38.04.15a.1.1 89.98 0 0 .04.06l.46.32a.1.1 89.98 0 0 .13-.01l.2-.2a.1.1 89.98 0 0 .01-.14l-.3-.45a.1.1 89.98 0 0-.07-.04l-.15-.05-1.39-1.39a.41.41 0 0 0-.1-.4l-1.6-1.6a.42.42 0 0 0-.25-.12.4.4 0 0 0-.07 0zm2.92.03a.05.05 0 0 0-.02 0c-.25.1-.49.27-.6.47a.69.69 0 0 0-.06.51 1.35 1.35 0 0 1-.32.47l.18.2a.64.64 0 0 1 .1.42c.2-.2.56-.45.69-.5.32.06.64-.07.79-.35.11-.2.14-.5.08-.76a.05.05 0 0 0-.06-.04.05.05 0 0 0-.04.03l-.31.56c-.03.05-.09.07-.17.07a.63.63 0 0 1-.27-.09.62.62 0 0 1-.22-.18c-.04-.06-.06-.13-.03-.18l.3-.55a.06.06 0 0 0 0-.06.05.05 0 0 0-.04-.02zM5.59 7.15L4.3 8.4c-.14.14-.12.38.04.54.16.16.4.18.54.04l1.4-1.51c-.26.08-.48-.04-.68-.3zm-.97 1.28a.2.2 0 0 1 .14.35.2.2 0 1 1-.29-.28.2.2 0 0 1 .15-.07z"/></svg>
